htdocs/styles/images/printer.svg

<?xml version="1.0" encoding="UTF-8"?>
<svg width="56px" height="49px" viewBox="0 0 56 49" version="1.1" xmlns="http://www.w3.org/2000/svg" xmlns:xlink="http://www.w3.org/1999/xlink">
    <!-- Generator: Sketch 46.2 (44496) - http://www.bohemiancoding.com/sketch -->
    <title>printer</title>
    <desc>Created with Sketch.</desc>
    <defs>
        <filter x="-14.6%" y="-12.5%" width="129.2%" height="137.2%" filterUnits="objectBoundingBox" id="filter-1">
            <feOffset dx="0" dy="2" in="SourceAlpha" result="shadowOffsetOuter1"></feOffset>
            <feGaussianBlur stdDeviation="2" in="shadowOffsetOuter1" result="shadowBlurOuter1"></feGaussianBlur>
            <feColorMatrix values="0 0 0 0 0   0 0 0 0 0   0 0 0 0 0  0 0 0 0.5 0" type="matrix" in="shadowBlurOuter1" result="shadowMatrixOuter1"></feColorMatrix>
            <feMerge>
                <feMergeNode in="shadowMatrixOuter1"></feMergeNode>
                <feMergeNode in="SourceGraphic"></feMergeNode>
            </feMerge>
        </filter>
    </defs>
    <g id="UI" stroke="none" stroke-width="1" fill="none" fill-rule="evenodd">
        <g id="21-copy-4" transform="translate(-784.000000, -520.000000)" fill-rule="nonzero" fill="#FFFFFF">
            <g id="Group-7" transform="translate(678.000000, 416.000000)">
                <g id="Group-5" transform="translate(77.675889, 73.294606)">
                    <g transform="translate(-19.617125, -15.039885)" id="printer">
                        <g filter="url(#filter-1)" transform="translate(52.501203, 48.235610)">
                            <path d="M43.7542789,6.02586987 L34.9669071,6.02586987 L34.9669071,1.16207911 C34.9669071,0.520404222 34.5199264,0 33.9687851,0 L13.1011674,0 C12.5500261,0 12.1030454,0.520404222 12.1030454,1.16207911 L12.1030454,6.02597691 L3.31567365,6.02597691 C1.48739211,6.02586987 0,7.75769635 0,9.8863016 L0,28.3859117 C0,30.514517 1.48739211,32.2463435 3.31567365,32.2463435 L12.1030454,32.2463435 L12.1030454,38.8825784 C12.1030454,39.5242532 12.5500261,40.0446575 13.1011674,40.0446575 L33.968877,40.0446575 C34.5200184,40.0446575 34.9669991,39.5242532 34.9669991,38.8825784 L34.9669991,32.2463435 L43.7543708,32.2463435 C45.5825604,32.2463435 47.0700445,30.514624 47.0700445,28.3859117 L47.0700445,9.8863016 C47.0699525,7.75769635 45.5824685,6.02586987 43.7542789,6.02586987 Z M45.0738924,28.3859117 C45.0738004,29.2330939 44.4818406,29.9222923 43.7543708,29.9222923 L34.9669071,29.9222923 L34.9669071,23.3269533 L36.7876501,23.3269533 C37.3387915,23.3269533 37.7857721,22.8065491 37.7857721,22.1648742 C37.7857721,21.5231993 37.3387915,21.0027951 36.7876501,21.0027951 L33.968877,21.0027951 L13.1011674,21.0027951 L10.2823944,21.0027951 C9.73125302,21.0027951 9.28427234,21.5231993 9.28427234,22.1648742 C9.28427234,22.8065491 9.73125302,23.3269533 10.2823944,23.3269533 L12.1031373,23.3269533 L12.1031373,29.9222923 L3.31567365,29.9222923 C2.58820386,29.9222923 1.99624404,29.2330939 1.99624404,28.3859117 L1.99624404,9.8863016 C1.99624404,9.03922653 2.58820386,8.34992106 3.31567365,8.34992106 L43.7543708,8.34992106 C44.4818406,8.34992106 45.0738924,9.03911949 45.0738924,9.8863016 L45.0738924,28.3859117 Z" id="Shape"></path>
                        </g>
                    </g>
                </g>
            </g>
        </g>
    </g>
</svg>

<?xml version="1.0" encoding="utf-8"?>
<!-- Generator: Adobe Illustrator 21.0.2, SVG Export Plug-In . SVG Version: 6.00 Build 0)  -->
<svg version="1.1" id="Calque_1" xmlns="http://www.w3.org/2000/svg" xmlns:xlink="http://www.w3.org/1999/xlink" x="0px" y="0px"
	 viewBox="0 0 56 49" style="enable-background:new 0 0 56 49;" xml:space="preserve">
<style type="text/css">
	.st0{filter:url(#filter-1);}
	.st1{fill:#FFFFFF;}
</style>
<filter  filterUnits="objectBoundingBox" height="137.2%" id="filter-1" width="129.2%" x="-14.6%" y="-12.5%">
	<feOffset  dx="0" dy="2" in="SourceAlpha" result="shadowOffsetOuter1"></feOffset>
	<feGaussianBlur  in="shadowOffsetOuter1" result="shadowBlurOuter1" stdDeviation="2"></feGaussianBlur>
	
		<feColorMatrix  in="shadowBlurOuter1" result="shadowMatrixOuter1" type="matrix" values="0 0 0 0 0   0 0 0 0 0   0 0 0 0 0  0 0 0 0.5 0">
		</feColorMatrix>
	<feMerge>
		<feMergeNode  in="shadowMatrixOuter1"></feMergeNode>
		<feMergeNode  in="SourceGraphic"></feMergeNode>
	</feMerge>
</filter>
<title>printer</title>
<desc>Created with Sketch.</desc>
<g id="UI">
	<g id="_x32_1-copy-4" transform="translate(-784.000000, -520.000000)">
		<g id="Group-7" transform="translate(678.000000, 416.000000)">
			<g id="Group-5" transform="translate(77.675889, 73.294606)">
				<g id="printer" transform="translate(-19.617125, -15.039885)">
					<g transform="translate(52.501203, 48.235610)" class="st0">
						<path id="Shape_1_" class="st1" d="M43.8,6H35V1.2C35,0.5,34.5,0,34,0H13.1c-0.6,0-1,0.5-1,1.2V6H3.3C1.5,6,0,7.8,0,9.9v18.5
							c0,2.1,1.5,3.9,3.3,3.9h8.8v6.6c0,0.6,0.4,1.2,1,1.2H34c0.6,0,1-0.5,1-1.2v-6.6h8.8c1.8,0,3.3-1.7,3.3-3.9V9.9
							C47.1,7.8,45.6,6,43.8,6z M45.1,28.4c0,0.8-0.6,1.5-1.3,1.5H35v-6.6h1.8c0.6,0,1-0.5,1-1.2c0-0.6-0.4-1.2-1-1.2H34H13.1h-2.8
							c-0.6,0-1,0.5-1,1.2c0,0.6,0.4,1.2,1,1.2h1.8v6.6H3.3c-0.7,0-1.3-0.7-1.3-1.5V9.9C2,9,2.6,8.3,3.3,8.3h40.4
							c0.7,0,1.3,0.7,1.3,1.5V28.4z"/>
					</g>
				</g>
			</g>
		</g>
	</g>
</g>
<path class="st1" d="M12.3,16.9H9.6c-0.9,0-1.6-0.7-1.6-1.6v0c0-0.9,0.7-1.6,1.6-1.6h2.6c0.9,0,1.6,0.7,1.6,1.6v0
	C13.9,16.1,13.1,16.9,12.3,16.9z"/>
</svg>
